hosted/assets/icon/widgets/dark-mode/load-file.svg

<svg width="50" height="50" viewBox="0 0 50 50" fill="none" xmlns="http://www.w3.org/2000/svg">
<path fill-rule="evenodd" clip-rule="evenodd" d="M9.8499 2.84999V47.15H40.1499V15.6591L27.2782 2.84999H9.8499ZM8.1499 2.09999C8.1499 1.57532 8.57524 1.14999 9.0999 1.14999H27.5878C27.839 1.14999 28.0799 1.24945 28.2579 1.42661L41.57 14.674C41.7492 14.8523 41.8499 15.0946 41.8499 15.3473V47.9C41.8499 48.4247 41.4246 48.85 40.8999 48.85H9.0999C8.57524 48.85 8.1499 48.4247 8.1499 47.9V2.09999Z" fill="white"/>
<path fill-rule="evenodd" clip-rule="evenodd" d="M27.8499 14.15V2H26.1499V14.9C26.1499 15.4247 26.5752 15.85 27.0999 15.85H40.9999V14.15H27.8499Z" fill="white"/>
<path d="M17 38C17 37.4477 17.4477 37 18 37H32C32.5523 37 33 37.4477 33 38V40C33 40.5523 32.5523 41 32 41H18C17.4477 41 17 40.5523 17 40V38Z" fill="#4A6BB7"/>
<path fill-rule="evenodd" clip-rule="evenodd" d="M16.1499 38C16.1499 36.9783 16.9782 36.15 17.9999 36.15H31.9999C33.0216 36.15 33.8499 36.9783 33.8499 38V40C33.8499 41.0217 33.0216 41.85 31.9999 41.85H17.9999C16.9782 41.85 16.1499 41.0217 16.1499 40V38ZM17.9999 37.85C17.9171 37.85 17.8499 37.9172 17.8499 38V40C17.8499 40.0828 17.9171 40.15 17.9999 40.15H31.9999C32.0827 40.15 32.1499 40.0828 32.1499 40V38C32.1499 37.9172 32.0827 37.85 31.9999 37.85H17.9999Z" fill="white"/>
<path d="M23.3218 34.963L26.6774 34.963C26.7326 34.963 26.7774 34.9182 26.7774 34.863L26.7774 26.361C26.7774 26.2749 26.879 26.2291 26.9435 26.286L30.7072 29.6069C30.7467 29.6418 30.8064 29.64 30.8438 29.6029L32.926 27.536C32.9662 27.4961 32.9653 27.4308 32.924 27.3921L25.068 20.0271C25.0295 19.991 24.9697 19.991 24.9312 20.0271L17.0752 27.3921C17.0339 27.4308 17.033 27.4961 17.0732 27.536L19.1554 29.6029C19.1928 29.64 19.2525 29.6417 19.292 29.6069L23.0556 26.286C23.1202 26.2291 23.2218 26.2749 23.2218 26.361L23.2218 34.863C23.2218 34.9182 23.2666 34.963 23.3218 34.963Z" fill="#4A6BB7"/>
<path fill-rule="evenodd" clip-rule="evenodd" d="M27.6275 34.8629C27.6275 35.3876 27.2021 35.8129 26.6775 35.8129L23.3219 35.8129C22.7972 35.8129 22.3719 35.3876 22.3719 34.8629L22.3719 28.023L19.8545 30.2442L19.2921 29.6069L19.8545 30.2442C19.4793 30.5753 18.9117 30.5586 18.5567 30.2061L19.1555 29.6029L18.5567 30.2061L16.4744 28.1392C16.0926 27.7602 16.1014 27.1399 16.494 26.7719L24.3499 19.4069L24.3499 19.4069C24.7154 19.0644 25.284 19.0644 25.6494 19.4069L25.0681 20.027L25.6494 19.4069L33.5054 26.7719C33.8979 27.1399 33.9068 27.7602 33.5249 28.1392L31.4427 30.2061L31.4427 30.2061C31.0876 30.5586 30.52 30.5753 30.1449 30.2442L30.6987 29.6167L30.1449 30.2442L27.6275 28.023L27.6275 34.8629ZM25.9275 34.1129L25.9275 26.361C25.9275 25.5429 26.8926 25.1074 27.506 25.6486L30.7433 28.5051L31.7755 27.4804L24.9997 21.128L18.2238 27.4804L19.2561 28.5051L22.4934 25.6486L23.0557 26.286L22.4934 25.6486C23.1068 25.1074 24.0719 25.5429 24.0719 26.361L24.0719 34.1129L25.9275 34.1129ZM17.6728 26.9334C17.6726 26.9332 17.6723 26.9329 17.6721 26.9327L17.1437 27.465L17.6721 26.9327L17.6728 26.9334ZM32.3267 26.9332L32.3273 26.9327L32.8557 27.465L32.3273 26.9327C32.3271 26.9329 32.3269 26.9331 32.3267 26.9332Z" fill="white"/>
</svg>

<svg width="50" height="50" fill="none" xmlns="http://www.w3.org/2000/svg"><path fill-rule="evenodd" clip-rule="evenodd" d="M9.85 2.85v44.3h30.3V15.66L27.278 2.85H9.85zm-1.7-.75a.95.95 0 01.95-.95h18.488c.251 0 .492.1.67.277L41.57 14.674c.18.178.28.42.28.673V47.9a.95.95 0 01-.95.95H9.1a.95.95 0 01-.95-.95V2.1z" fill="#fff"/><path fill-rule="evenodd" clip-rule="evenodd" d="M27.85 14.15V2h-1.7v12.9c0 .525.425.95.95.95H41v-1.7H27.85z" fill="#fff"/><path d="M17 38a1 1 0 011-1h14a1 1 0 011 1v2a1 1 0 01-1 1H18a1 1 0 01-1-1v-2z" fill="#4A6BB7"/><path fill-rule="evenodd" clip-rule="evenodd" d="M16.15 38A1.85 1.85 0 0118 36.15h14A1.85 1.85 0 0133.85 38v2A1.85 1.85 0 0132 41.85H18A1.85 1.85 0 0116.15 40v-2zm1.85-.15a.15.15 0 00-.15.15v2c0 .083.067.15.15.15h14a.15.15 0 00.15-.15v-2a.15.15 0 00-.15-.15H18z" fill="#fff"/><path d="M23.322 34.963h3.355a.1.1 0 00.1-.1v-8.502a.1.1 0 01.166-.075l3.764 3.32a.1.1 0 00.137-.003l2.082-2.067a.1.1 0 00-.002-.144l-7.856-7.365a.1.1 0 00-.137 0l-7.856 7.365a.1.1 0 00-.002.144l2.082 2.067a.1.1 0 00.137.004l3.764-3.321a.1.1 0 01.166.075v8.502a.1.1 0 00.1.1z" fill="#4A6BB7"/><path fill-rule="evenodd" clip-rule="evenodd" d="M27.628 34.863a.95.95 0 01-.95.95h-3.356a.95.95 0 01-.95-.95v-6.84l-2.517 2.221-.563-.637.563.637a.95.95 0 01-1.298-.038l.599-.603-.6.603-2.082-2.067a.95.95 0 01.02-1.367l7.856-7.365a.95.95 0 011.3 0l-.582.62.581-.62 7.856 7.365a.95.95 0 01.02 1.367l-2.082 2.067a.95.95 0 01-1.298.038l.554-.627-.554.627-2.517-2.221v6.84zm-1.7-.75V26.36a.95.95 0 011.578-.712l3.237 2.856 1.033-1.025L25 21.128l-6.776 6.352 1.032 1.025 3.237-2.856.563.637-.563-.637a.95.95 0 011.579.712v7.752h1.855zm-8.255-7.18l-.53.532.53-.532zm14.654 0l.529.532-.529-.532z" fill="#fff"/></svg>
